storage/app/icons/phosphoricons/thin/device-tablet-thin.svg

<svg xmlns="http://www.w3.org/2000/svg" fill="currentColor" viewBox="0 0 256 256"><path d="M192 28H64a20 20 0 0 0-20 20v160a20 20 0 0 0 20 20h128a20 20 0 0 0 20-20V48a20 20 0 0 0-20-20M52 68h152v120H52Zm12-32h128a12 12 0 0 1 12 12v12H52V48a12 12 0 0 1 12-12m128 184H64a12 12 0 0 1-12-12v-12h152v12a12 12 0 0 1-12 12"/></svg>

<svg xmlns="http://www.w3.org/2000/svg" viewBox="0 0 256 256" fill="currentColor"><path d="M192,28H64A20,20,0,0,0,44,48V208a20,20,0,0,0,20,20H192a20,20,0,0,0,20-20V48A20,20,0,0,0,192,28ZM52,68H204V188H52ZM64,36H192a12,12,0,0,1,12,12V60H52V48A12,12,0,0,1,64,36ZM192,220H64a12,12,0,0,1-12-12V196H204v12A12,12,0,0,1,192,220Z"/></svg>
